X:1
T:The Unquiet Grave
T:The Unquiet Grave
T:Cold Blows the Wind
L:1/8
M:4/4
K:G
V:1 treble 
V:1
 A2 | B3 A G3 A | B3 A G2 d2 | c2 B2 A2 G2 | A6 A2 | B3 c d2 GG | cc e2 d2 (GA) | B3 B B2 A2 | %8
w: Tis|I Tis I my|own true love The|only * one thou|hast I|want one kiss from thy|lily * white lips and *|that is all I|
 G6 || %9
w: ask|

